X: 33841
T: Reconciliation, The
R: reel
M: 4/4
K: Amajor
z z|:A2 ((3 cBA) eA fA|eA fA ec Bc|A2cA eA fA|ec Bc AF EF|
A2((3 cBA) eA fA|eA fA ec Bc|AB AF Ec ef|ec Bc A2 {d} cB|
A2 ((3 cBA) eA fA|eA fA ec Bc|A2ce a2 ae|fe df ec cB|
A2((3 cBA) eA fA|eA fA ec Bc|AB AF Ec ef|ec ((3cdB) Ad cB|
|:AB ce a2af|ec dB cA BG|AB ce a2ag|fb ba gb eg|
((3fgf) fe fd ec|((3 BcB) BA BA FG|AB AF Ec ef|ec Bc Ad cB:|

